24x24/apps/appimagekit-cutter.svg

<svg height="24" width="24" xmlns="http://www.w3.org/2000/svg"><circle cx="12" cy="12.5" opacity=".2" r="10"/><circle cx="12" cy="12" fill="#aaa" r="10"/><path d="m12 4.5a8 8 0 0 0 -8 8 8 8 0 0 0 8 8 8 8 0 0 0 5.277-2h-3.162l-3.115-6.047 3.115-5.953h3.166a8 8 0 0 0 -5.281-2zm4 5.5-2 1.25-2 1.25 2 1.25 2 1.25v-2.5zm0 2.5 2 1.25 2 1.25v-5l-2 1.25z" opacity=".1"/><path d="m12 2a10 10 0 0 0 -10 10 10 10 0 0 0 .01.291 10 10 0 0 1 9.99-9.791 10 10 0 0 1 9.99 9.709 10 10 0 0 0 .01-.209 10 10 0 0 0 -10-10z" fill="#f4f4f7" opacity=".2"/><g fill="#17191e"><path d="m12 4a8 8 0 0 0 -8 8 8 8 0 0 0 8 8 8 8 0 0 0 5.277-2h-3.162l-3.115-6.047 3.115-5.953h3.166a8 8 0 0 0 -5.281-2z"/><path d="m24.203 24.514 4.04-2.332 4.04-2.333v9.331l-4.04-2.333z" transform="matrix(.49503 0 0 .5359 .019 -1.137)"/><path d="m24.203 24.514 4.04-2.332 4.04-2.333v9.331l-4.04-2.333z" transform="matrix(.49503 0 0 .5359 4.019 -1.137)"/></g><path d="m7.959 6.5a.988.988 0 0 0 -.878.559l-4.964 9.895c-.35.701.129 1.546.878 1.546h8.01c.748 0 1.228-.843.879-1.544l-2.385-4.456 2.187-4.452c.353-.701-.127-1.548-.877-1.548z" opacity=".2"/><path d="m7.959 6a.988.988 0 0 0 -.878.559l-4.964 9.895c-.35.701.129 1.546.878 1.546h8.01c.748 0 1.228-.843.879-1.544l-2.385-4.456 2.187-4.452c.353-.701-.127-1.548-.877-1.548z" fill="#f4f4f7"/></svg>

<svg xmlns="http://www.w3.org/2000/svg" width="24" height="24"><circle style="opacity:.2" cx="12" cy="12.5" r="10"/><circle style="fill:#aaa" cx="12" cy="12" r="10"/><path style="opacity:.1" d="M12 4.5a8 8 0 0 0-8 8 8 8 0 0 0 8 8 8 8 0 0 0 5.277-2h-3.162L11 12.453 14.115 6.5h3.166A8 8 0 0 0 12 4.5zm4 5.5-2 1.25-2 1.25 2 1.25L16 15v-2.5zm0 2.5 2 1.25L20 15v-5l-2 1.25z"/><path style="opacity:.2;fill:#f4f4f7" d="M12 2A10 10 0 0 0 2 12a10 10 0 0 0 .01.291A10 10 0 0 1 12 2.5a10 10 0 0 1 9.99 9.709A10 10 0 0 0 22 12 10 10 0 0 0 12 2z"/><path style="fill:#17191e" d="M12 4a8 8 0 0 0-8 8 8 8 0 0 0 8 8 8 8 0 0 0 5.277-2h-3.162L11 11.953 14.115 6h3.166A8 8 0 0 0 12 4z"/><path style="fill:#17191e" transform="matrix(.49503 0 0 .5359 .019 -1.137)" d="m24.203 24.514 4.04-2.332 4.04-2.333v9.331l-4.04-2.333z"/><path style="fill:#17191e" transform="matrix(.49503 0 0 .5359 4.019 -1.137)" d="m24.203 24.514 4.04-2.332 4.04-2.333v9.331l-4.04-2.333z"/><path style="opacity:.2" d="M7.959 6.5a.988.988 0 0 0-.878.559l-4.964 9.895c-.35.701.129 1.546.878 1.546h8.01c.748 0 1.228-.843.879-1.544L9.499 12.5l2.187-4.452c.353-.701-.127-1.548-.877-1.548z"/><path style="fill:#f4f4f7" d="M7.959 6a.988.988 0 0 0-.878.559l-4.964 9.895c-.35.701.129 1.546.878 1.546h8.01c.748 0 1.228-.843.879-1.544L9.499 12l2.187-4.452C12.039 6.847 11.559 6 10.809 6z"/></svg>
